packages/ffe-icons/icons/open/500/md/line_end_circle.svg

<svg xmlns="http://www.w3.org/2000/svg" height="24" viewBox="0 -960 960 960" width="24"><path d="M640-326.218q63.609 0 108.696-45.086Q793.782-416.391 793.782-480q0-63.609-45.086-108.696Q703.609-633.782 640-633.782q-63.609 0-108.696 45.086Q486.218-543.609 486.218-480q0 63.609 45.086 108.696Q576.391-326.218 640-326.218Zm0 91.001q-90.478 0-157.696-56.761-67.217-56.761-82.891-142.522H120q-19.152 0-32.326-13.174T74.5-480q0-19.152 13.174-32.326T120-525.5h279.413q15.674-85.761 82.891-142.522Q549.522-724.783 640-724.783q102.152 0 173.467 71.316Q884.783-582.152 884.783-480q0 102.152-71.316 173.467Q742.152-235.217 640-235.217ZM640-480Z"/></svg>

<svg xmlns="http://www.w3.org/2000/svg" height="24" viewBox="0 -960 960 960" width="24"><path d="M640-326.22q63.61 0 108.7-45.08 45.08-45.09 45.08-108.7T748.7-588.7q-45.09-45.08-108.7-45.08T531.3-588.7q-45.08 45.09-45.08 108.7t45.08 108.7q45.09 45.08 108.7 45.08Zm0 91q-90.48 0-157.7-56.76-67.21-56.76-82.89-142.52H120q-19.15 0-32.33-13.17Q74.5-460.85 74.5-480t13.17-32.33Q100.85-525.5 120-525.5h279.41q15.68-85.76 82.89-142.52 67.22-56.76 157.7-56.76 102.15 0 173.47 71.31 71.31 71.32 71.31 173.47t-71.31 173.47Q742.15-235.22 640-235.22ZM640-480Z"/></svg>
